svg/blobs-icons/no-decorations/scissors.svg

<svg xmlns="http://www.w3.org/2000/svg" xmlns:xlink="http://www.w3.org/1999/xlink" preserveAspectRatio="xMidYMid" width="174" height="216" viewBox="0 0 174 216"><defs><style>.cls-3{fill:#fbb713}.cls-4{fill:#000;opacity:.35}.cls-6{fill:#142a3b}</style></defs><g id="group-66svg"><path d="M98.866 157.259s15.855-15.855 15.855-15.855S33 59.686 33 59.686s-2.415-2.416-2.415-2.416c-8.448-8.448-22.146-8.448-30.595.0l98.876 99.989z" id="path-1" class="cls-3" fill-rule="evenodd"/><path d="M98.866 157.259s15.855-15.855 15.855-15.855S33 59.686 33 59.686s-2.415-2.416-2.415-2.416c-8.448-8.448-22.146-8.448-30.595.0l98.876 99.989z" id="path-2" class="cls-4" fill-rule="evenodd"/><path d="M98.794 63.401S114.65 79.256 114.65 79.256s-81.091 81.09-81.091 81.09S31.144 162.761 31.144 162.761C22.695 171.209 8.997 171.209.548 162.761l98.246-99.36z" id="path-3" class="cls-3" fill-rule="evenodd"/><path d="M71.529 110.942C71.529 114.722 68.464 117.787 64.683 117.787 60.903 117.787 57.838 114.722 57.838 110.942c0-3.782 3.065-6.845 6.84500000000001-6.845C68.464 104.097 71.529 107.16 71.529 110.942z" id="path-4" class="cls-6" fill-rule="evenodd"/><path d="M131.567.014c-23.175.0-41.961 18.785-41.961 41.959.0 23.172 18.786 41.958 41.961 41.958 23.174.0 41.96-18.786 41.96-41.958.0-23.174-18.786-41.959-41.96-41.959zm0 65.386c-12.94.0-23.43-10.488-23.43-23.427.0-12.937 10.49-23.429 23.43-23.429 12.939.0 23.428 10.492 23.428 23.429.0 12.939-10.489 23.427-23.428 23.427z" id="path-5" class="cls-3" fill-rule="evenodd"/><path d="M130.908 131.629c-23.175.0-41.961 18.786-41.961 41.958.0 23.174 18.786 41.959 41.961 41.959 23.173.0 41.96-18.785 41.96-41.959.0-23.172-18.787-41.958-41.96-41.958zm0 65.387c-12.94.0-23.43-10.49-23.43-23.429.0-12.939 10.49-23.428 23.43-23.428 12.939.0 23.428 10.489 23.428 23.428.0 12.939-10.489 23.429-23.428 23.429z" id="path-6" class="cls-3" fill-rule="evenodd"/><path d="M112.615 55.649C109.827 51.794 108.137 47.094 108.137 41.973c0-12.937 10.49-23.429 23.429-23.429 5.12100000000001.0 9.821 1.689 13.676 4.478C140.985 17.137 134.11 13.272 126.294 13.272c-12.94.0-23.429 10.49-23.429 23.429.0 7.817 3.866 14.693 9.75 18.948z" id="path-7" class="cls-4" fill-rule="evenodd"/><path d="M158.473 9.791C164.572 17.077 168.255 26.456 168.255 36.701c0 23.172-18.787 41.957-41.961 41.957C116.049 78.658 106.67 74.977 99.384 68.877c7.697 9.197 19.252 15.054 32.182 15.054 23.174.0 41.961-18.786 41.961-41.958C173.527 29.043 167.669 17.488 158.473 9.791z" id="path-8" class="cls-4" fill-rule="evenodd"/><path d="M111.959 187.266C109.169 183.409 107.478 178.71 107.478 173.587c0-12.939 10.49-23.428 23.43-23.428C136.03 150.159 140.73 151.849 144.586 154.638 140.33 148.753 133.453 144.887 125.635 144.887c-12.94.0-23.429 10.489-23.429 23.427C102.206 176.132 106.073 183.011 111.959 187.266z" id="path-9" class="cls-4" fill-rule="evenodd"/><path d="M157.817 141.41C163.915 148.694 167.595 158.072 167.595 168.314c0 23.175-18.786 41.959-41.96 41.959-10.244.0-19.622-3.678-26.907-9.77699999999999C106.425 209.69 117.978 215.546 130.908 215.546c23.173.0 41.96-18.785 41.96-41.959.0-12.929-5.857-24.481-15.051-32.177z" id="path-10" class="cls-4" fill-rule="evenodd"/></g></svg>

<svg xmlns="http://www.w3.org/2000/svg" xmlns:xlink="http://www.w3.org/1999/xlink" preserveAspectRatio="xMidYMid" width="174" height="216" viewBox="0 0 174 216">
  <defs>
    <style>

      .cls-3 {
        fill: #fbb713;
      }

      .cls-4 {
        fill: #000000;
        opacity: 0.35;
      }

      .cls-6 {
        fill: #142a3b;
      }
    </style>
  </defs>
  <g id="group-66svg">
    <path d="M98.866,157.259 C98.866,157.259 114.721,141.404 114.721,141.404 C114.721,141.404 33.000,59.686 33.000,59.686 C33.000,59.686 30.585,57.270 30.585,57.270 C22.137,48.822 8.439,48.822 -0.010,57.270 C-0.010,57.270 98.866,157.259 98.866,157.259 Z" id="path-1" class="cls-3" fill-rule="evenodd"/>
    <path d="M98.866,157.259 C98.866,157.259 114.721,141.404 114.721,141.404 C114.721,141.404 33.000,59.686 33.000,59.686 C33.000,59.686 30.585,57.270 30.585,57.270 C22.137,48.822 8.439,48.822 -0.010,57.270 C-0.010,57.270 98.866,157.259 98.866,157.259 Z" id="path-2" class="cls-4" fill-rule="evenodd"/>
    <path d="M98.794,63.401 C98.794,63.401 114.650,79.256 114.650,79.256 C114.650,79.256 33.559,160.346 33.559,160.346 C33.559,160.346 31.144,162.761 31.144,162.761 C22.695,171.209 8.997,171.209 0.548,162.761 C0.548,162.761 98.794,63.401 98.794,63.401 Z" id="path-3" class="cls-3" fill-rule="evenodd"/>
    <path d="M71.529,110.942 C71.529,114.722 68.464,117.787 64.683,117.787 C60.903,117.787 57.838,114.722 57.838,110.942 C57.838,107.160 60.903,104.097 64.683,104.097 C68.464,104.097 71.529,107.160 71.529,110.942 Z" id="path-4" class="cls-6" fill-rule="evenodd"/>
    <path d="M131.567,0.014 C108.392,0.014 89.606,18.799 89.606,41.973 C89.606,65.145 108.392,83.931 131.567,83.931 C154.741,83.931 173.527,65.145 173.527,41.973 C173.527,18.799 154.741,0.014 131.567,0.014 ZM131.567,65.400 C118.627,65.400 108.137,54.912 108.137,41.973 C108.137,29.036 118.627,18.544 131.567,18.544 C144.506,18.544 154.995,29.036 154.995,41.973 C154.995,54.912 144.506,65.400 131.567,65.400 Z" id="path-5" class="cls-3" fill-rule="evenodd"/>
    <path d="M130.908,131.629 C107.733,131.629 88.947,150.415 88.947,173.587 C88.947,196.761 107.733,215.546 130.908,215.546 C154.081,215.546 172.868,196.761 172.868,173.587 C172.868,150.415 154.081,131.629 130.908,131.629 ZM130.908,197.016 C117.968,197.016 107.478,186.526 107.478,173.587 C107.478,160.648 117.968,150.159 130.908,150.159 C143.847,150.159 154.336,160.648 154.336,173.587 C154.336,186.526 143.847,197.016 130.908,197.016 Z" id="path-6" class="cls-3" fill-rule="evenodd"/>
    <path d="M112.615,55.649 C109.827,51.794 108.137,47.094 108.137,41.973 C108.137,29.036 118.627,18.544 131.566,18.544 C136.687,18.544 141.387,20.233 145.242,23.022 C140.985,17.137 134.110,13.272 126.294,13.272 C113.354,13.272 102.865,23.762 102.865,36.701 C102.865,44.518 106.731,51.394 112.615,55.649 Z" id="path-7" class="cls-4" fill-rule="evenodd"/>
    <path d="M158.473,9.791 C164.572,17.077 168.255,26.456 168.255,36.701 C168.255,59.873 149.468,78.658 126.294,78.658 C116.049,78.658 106.670,74.977 99.384,68.877 C107.081,78.074 118.636,83.931 131.566,83.931 C154.740,83.931 173.527,65.145 173.527,41.973 C173.527,29.043 167.669,17.488 158.473,9.791 Z" id="path-8" class="cls-4" fill-rule="evenodd"/>
    <path d="M111.959,187.266 C109.169,183.409 107.478,178.710 107.478,173.587 C107.478,160.648 117.968,150.159 130.908,150.159 C136.030,150.159 140.730,151.849 144.586,154.638 C140.330,148.753 133.453,144.887 125.635,144.887 C112.695,144.887 102.206,155.376 102.206,168.314 C102.206,176.132 106.073,183.011 111.959,187.266 Z" id="path-9" class="cls-4" fill-rule="evenodd"/>
    <path d="M157.817,141.410 C163.915,148.694 167.595,158.072 167.595,168.314 C167.595,191.489 148.809,210.273 125.635,210.273 C115.391,210.273 106.013,206.595 98.728,200.496 C106.425,209.690 117.978,215.546 130.908,215.546 C154.081,215.546 172.868,196.761 172.868,173.587 C172.868,160.658 167.011,149.106 157.817,141.410 Z" id="path-10" class="cls-4" fill-rule="evenodd"/>
  </g>
</svg>
